src/16/actions/kstars_ekos.svg

<svg xmlns="http://www.w3.org/2000/svg" width="16" height="16" viewBox="0 0 16 16">
 <defs>
  <style id="current-color-scheme" type="text/css">
   .ColorScheme-Text { color:#5d656b; } .ColorScheme-Highlight { color:#5294e2; }
  </style>
 </defs>
 <path style="fill:currentColor" class="ColorScheme-Text" d="M 8 -0.095703125 L 8 0 A 7 6 0 0 0 7.0800781 0.05859375 A 7 6 0 0 0 6.9179688 0.076171875 L 6.9140625 0.076171875 A 7 6 0 0 0 1 5.9765625 L 1 13.976562 A 7 2 0 0 0 8 15.976562 A 7 2 0 0 0 15 13.976562 L 15 5.9765625 A 7 6 0 0 0 10.685547 0.44140625 L 10.683594 0.44140625 A 7 6 0 0 0 10.630859 0.42382812 A 7 6 0 0 0 10.240234 0.3046875 A 7 6 0 0 0 9.9589844 0.22460938 A 7 6 0 0 0 9.578125 0.14257812 A 7 6 0 0 0 9.2753906 0.083984375 A 7 6 0 0 0 8.9042969 0.0390625 A 7 6 0 0 0 8.5761719 0.00390625 A 7 6 0 0 0 8 -0.095703125 z M 10.115234 1.3261719 A 6 5 0 0 1 14 6.0253906 A 6 2 0 0 1 8 8.0253906 A 6 2 0 0 1 2 6.0253906 A 6 5 0 0 1 5.7519531 1.3925781 C 4.7282531 2.8784781 4.1906156 4.8194906 4.0410156 6.5253906 A 6 2 0 0 0 8 7.0253906 C 8.29858 4.5300906 9.1928344 2.7807625 10.115234 1.3515625 L 10.115234 1.3261719 z M 2 7.5253906 A 7 3 0 0 0 8 8.9882812 A 7 3 0 0 0 14 7.5273438 L 14 13.988281 A 6 1 0 0 1 8 14.988281 A 6 1 0 0 1 2 13.988281 L 2 7.5253906 z"/>
</svg>

<svg xmlns="http://www.w3.org/2000/svg" width="16" height="16"><defs><style id="current-color-scheme" type="text/css"></style></defs><path d="M8-.096V0a7 6 0 0 0-.92.059 7 6 0 0 0-.162.017h-.004A7 6 0 0 0 1 5.976v8a7 2 0 0 0 7 2 7 2 0 0 0 7-2v-8A7 6 0 0 0 10.686.442h-.002a7 6 0 0 0-.053-.017 7 6 0 0 0-.39-.12 7 6 0 0 0-.282-.08 7 6 0 0 0-.38-.081 7 6 0 0 0-.304-.059 7 6 0 0 0-.37-.045 7 6 0 0 0-.329-.035A7 6 0 0 0 8-.096zm2.115 1.422A6 5 0 0 1 14 6.026a6 2 0 0 1-6 2 6 2 0 0 1-6-2 6 5 0 0 1 3.752-4.633C4.728 2.878 4.191 4.819 4.041 6.525a6 2 0 0 0 3.959.5c.299-2.495 1.193-4.244 2.115-5.673v-.026zM2 7.526a7 3 0 0 0 6 1.462 7 3 0 0 0 6-1.46v6.46a6 1 0 0 1-6 1 6 1 0 0 1-6-1V7.525z" fill="currentColor" color="#5d656b"/></svg>
